X:1
T:Felefeber
R:Vals
C:Annbjørg Lien
M:3/4
L:1/8
Q:90 Långsam vals
K:G
DGA| B3A B2 | G4 D2 | {D}E3G E2 | D4 D2 | ED EF GB | A3 DGA | B3A G2 | A3 DGA |
 B3d B2 | G4 D2 | {D}E3G E2 | D4 D2 | ED EF GB | A3 G GF | G6 | z2 F2 G2 |
 A3A A2 | A2 B2 c2 | B3c BA | G3A Bd | e3g ed | B3A G2 | BA- A4 | z2 z DGA |
 B3A B2 | G4 D2 | {D}E3G E2 | D4 D2 | ED EF GB | A3 G GF | G6 |

